X: 29276
T: New Mown Meadows, The
R: reel
M: 4/4
K: Ddorian
|:ADDD D2EG|A2B2 AGEG|1 ADDD D2DE|G2AG EGGG:|2 c3d B2BA|G2AG EGGG||
|:Bddd edBd|d2BG AGEG|1 Bddd edBA|G2AG EGGG:|2 c3d B2BA|G2AG EGGG||

